resources/svg/luggage-cart-line.svg

<svg fill="currentColor" viewBox="0 0 24 24" xmlns="http://www.w3.org/2000/svg"><path d="M5.50045 20.0005C6.32888 20.0005 7.00045 20.672 7.00045 21.5005C7.00045 22.3289 6.32888 23.0005 5.50045 23.0005C4.67203 23.0005 4.00045 22.3289 4.00045 21.5005C4.00045 20.672 4.67203 20.0005 5.50045 20.0005ZM18.5005 20.0005C19.3289 20.0005 20.0005 20.672 20.0005 21.5005C20.0005 22.3289 19.3289 23.0005 18.5005 23.0005C17.672 23.0005 17.0005 22.3289 17.0005 21.5005C17.0005 20.672 17.672 20.0005 18.5005 20.0005ZM2.17203 1.75781L5.99981 5.58581V16.9998L20.0005 17.0005V19.0005H5.00045C4.44817 19.0005 4.00045 18.5527 4.00045 18.0005L3.99981 6.41381L0.757812 3.17203L2.17203 1.75781ZM16.0005 3.00045C16.5527 3.00045 17.0005 3.44817 17.0005 4.00045L16.9998 5.99981L19.9936 6.00045C20.5497 6.00045 21.0005 6.45612 21.0005 6.99585V15.0051C21.0005 15.5548 20.5505 16.0005 19.9936 16.0005H8.0073C7.45123 16.0005 7.00045 15.5448 7.00045 15.0051V6.99585C7.00045 6.44611 7.4504 6.00045 8.0073 6.00045L10.9998 5.99981L11.0005 4.00045C11.0005 3.44817 11.4482 3.00045 12.0005 3.00045H16.0005ZM9.99981 7.99981L9.00045 8.00045V14.0005L9.99981 13.9998V7.99981ZM15.9998 7.99981H11.9998V13.9998H15.9998V7.99981ZM19.0005 8.00045L17.9998 7.99981V13.9998L19.0005 14.0005V8.00045ZM15.0005 5.00045H13.0005V6.00045H15.0005V5.00045Z"/></svg>

<svg xmlns="http://www.w3.org/2000/svg" viewBox="0 0 24 24" fill="currentColor">
    <g>
        <path fill="none" d="M0 0H24V24H0z"/>
        <path d="M5.5 20c.828 0 1.5.672 1.5 1.5S6.328 23 5.5 23 4 22.328 4 21.5 4.672 20 5.5 20zm13 0c.828 0 1.5.672 1.5 1.5s-.672 1.5-1.5 1.5-1.5-.672-1.5-1.5.672-1.5 1.5-1.5zM2.172 1.757l3.827 3.828V17L20 17v2H5c-.552 0-1-.448-1-1V6.413L.756 3.172l1.415-1.415zM16 3c.552 0 1 .448 1 1v2h2.993C20.55 6 21 6.456 21 6.995v8.01c0 .55-.45.995-1.007.995H8.007C7.45 16 7 15.544 7 15.005v-8.01C7 6.445 7.45 6 8.007 6h2.992L11 4c0-.552.448-1 1-1h4zm-6 5H9v6h1V8zm6 0h-4v6h4V8zm3 0h-1v6h1V8zm-4-3h-2v1h2V5z"/>
    </g>
</svg>
